X:1
T:Det Traum
T:Der Traum
T:Peter Cornelius
T:Johann Ludwig Uhland
T:Norsk sangerforum www.sangerforum.no
T:Norsk sangerforum www.sangerforum.no
T:Norsk sangerforum www.sangerforum.no
T:Norsk sangerforum www.sangerforum.no
C:Peter Cornelius
Z:Johann Ludwig Uhland
Z:Norsk sangerforum www.sangerforum.no
%%score [ 1 2 3 4 ]
L:1/8
Q:1/4=70
M:4/4
K:Bb
V:1 treble nm="Soprano"
V:2 treble nm="Alto"
V:3 treble-8 nm="Tenor"
V:4 bass nm="Bass"
V:1
"^Moderato"!p! D2 | G3 G A3 A |!<(! (B3 c) d2 d2!<)! |!>(! e3 e d3 d!>)! | =B6 d2 | %5
w: Im|schön- sten Gar- ten|wall- * ten zwei|Buh- len Hand in|Hand, zwei|
!<(! e2 d2 c2 B B!<)! | (A3 c/B/) A2!p! d2 | B2 A G B2 A2 | G4 z2!p! B2 | %9
w: kran- ke blei- che Ge-|stal- * * ten, sie|sas- sen in Blu- men-|land. Sie|
"^cresc." c2 d e (dA) (dc) | (B2 AG) ^F2 A2 | c2 d e (dA) (!invertedturn!BA/G/) | A6!pp! D2 | %13
w: küss- ten sich auf _ die _|Wan- * * gen, sie|küss- ten sich auf _ den _ _|Mund, sie|
 =B2 c d =e3 e | (A2 =Bc) B2 d2 | d2 (c=B) A2 G A |!<(! (=B4 c2)!<)!!f! D2 | %17
w: hiel- ten sich fest um-|schlun- * * gen, und|wur- den _ jung und ge-|sund, _ sie|
"^cresc." =B2 c d!ff! (=eg) (ec) |!>(! (A2 =Bc) B2!>)!!pp! (Bd) | d2 (c=B) B2 A3/2 G/ | %20
w: hiel- ten sich fest _ um- *|schlun- * * gen, sie _|wur- den _ jung und ge-|
 !fermata!G4 z2!p! D2 | G3 G A3 A | (B>c) d2 z2 z d | e3 e d3 d | B6 d2 | e2"^cresc." d d c2 B2 | %26
w: sund. Zwei|Glöck- lein klan- gen|hel- * le, der|Traum ver- schwand zur|Stund', sie|lag in der Klo- ster-|
 (A3 c/B/) A2!pp! d2 | B2 A G B2 A2 | G6 z2 |] %29
w: zel- * * le, er|fern in des Tur- mes|Grund.|
V:2
!p! A,2 | B,3 B, D3 D |!<(! G4 G2 G2!<)! |!>(! G3 G ^F3 F!>)! | G6 G2 |!<(! G2 G2 ^F2 G G!<)! | %6
w: Im|schön- sten Gar- ten|wall- ten zwei|Buh- len Hand in|Hand, zwei|kran- ke blei- che Ge-|
 G4 G2!p! ^F2 | G2 D D D2 ^F2 | G4 z2!p! G2 |"^cresc." A2 A A A2 (^FA) | (G2 =E2) D2 ^F2 | %11
w: stal- ten, sie|sas- sen in Blu- men-|land. Sie|küss- ten sich auf die _|Wan- * gen, sie|
 G2 G G (^FF) (GD) | ^F6!pp! D2 | D2 G G G3 G | ^F4 G2 =F2 | =E2 E2 E2 E E | %16
w: küss- ten sich auf _ den _|Mund, sie|hiel- ten sich fest um-|schlun- gen, und|wur- den jung und ge-|
!<(! (_E4 D2)!<)!!f! D2 |"^cresc." G2 ^F =F!ff! =E2 E2 |!>(! ^F4 F2!>)!!pp! =E2 | %19
w: sund, _ sie|hiel- ten sich fest um-|schlun- gen, sie|
 =E2 E2 ^F2 F3/2 D/ | !fermata!D4 z2!p! D2 | B,3 G G3 G | G2 G2 z2 z G | G3 G ^F3 F | G4 G2 G2- | %25
w: wur- den jung und ge-|sund. Zwei|Glöck- lein klan- gen|hel- le, der|Traum ver- schwand zur|Stund', sie lag|
 G2"^cresc." G G ^F2 G2 | G4 G2!pp! ^F2 | G2 D D D2 C2 | B,6 z2 |] %29
w: _ in der Klo- ster-|zel- le, er|fern in des Tur- mes|Grund.|
V:3
!p! ^F2 | G3 D D3 D |!<(! (G3 A) B2 =B2!<)! |!>(! c3 c A3 d!>)! | d6 d2 |!<(! c2 B2 (A2 B) B!<)! | %6
w: Im|schön- sten Gar- ten|wall- * ten zwei|Buh- len Hand in|Hand, zwei|kran- ke blei- che Ge-|
 e4 e2!p! d2 | d2 ^F G G2 A2 | B4 z2!p! d2 |"^cresc." e2 d c d2 d2 | (d2 c2) A2 d2 | %11
w: stal- ten, sie|sas- sen in Blu- men-|land. Sie|küss- ten sich auf die|Wan- * gen, sie|
 e2 d c d2 (dc/B/) | A6!pp! d2 | G2 G G c3 =e | (dc=BA) B2 G2 | G2 G2 G2 =E E |!<(! ^F6!<)!!f! d2 | %17
w: küss- ten sich auf den _ _|Mund, sie|hiel- ten sich fest um-|schlun- * * * gen, und|wur- den jung und ge-|sund, sie|
"^cresc." d2 A =B!ff! (c=e) (ge) |!>(! (dc=BA) A2!>)!!pp! (G^G) | ^G2 (A=B) d2 c3/2 B/ | %20
w: hiel- ten sich fest _ um- *|schlun- * * * gen, sie _|wur- den _ jung und ge-|
 !fermata!=B4 z2!p! ^F2 | G3 _B e3 e | (d>c) B2 z2 z B | c3 c A3 A | d6 d2 | %25
w: sund. Zwei|Glöck- lein klan- gen|hel- * le, der|Traum ver- schwand zur|Stund', sie|
 c2"^cresc." B B A2 B2 | (e2 d2) c2!pp! d2 | d2 c B G2 ^F2 | G6 z2 |] %29
w: lag in der Klo- ster-|zel- * le, er|fern in des Tur- mes|Grund.|
V:4
!p! D,2 | G,,3 G,, ^F,,3 F,, |!<(! G,,4 G,,2 G,,2!<)! |!>(! C,3 C, D,3 D,!>)! | G,,6 =B,,2 | %5
w: Im|schön- sten Gar- ten|wall- ten zwei|Buh- len Hand in|Hand, zwei|
!<(! C,2 D,2 (E,2 D,) D,!<)! | C,4 C,2!p! D,2 | G,,2 A,, B,, D,2 D,2 | G,,4 z2!p! G,2 | %9
w: kran- ke blei- che Ge-|stal- ten, sie|sas- sen in Blu- men-|land. Sie|
"^cresc." ^F,2 G, G, F,2 D,2 | (G,2 C,2) D,2 D,2 | C2 B, A, D,2 G,2 | D,6!pp! D,2 | %13
w: küss- ten sich auf die|Wan- * gen, sie|küss- ten sich auf den|Mund, sie|
 G,,2 =E, =B,, C,3 C, | D,4 G,2 =B,,2 | C,2 C,2 C,2 C, C, |!<(! (=B,,4 A,,2)!<)!!f! D,2 | %17
w: hiel- ten sich fest um-|schlun- gen, und|wur- den jung und ge-|sund, _ sie|
"^cresc." G,,2 G, G,!ff! C,2 C,2 |!>(! D,4 E,2!>)!!pp! =E,2 | A,,2 A,2 D,2 D,3/2 G,,/ | %20
w: hiel- ten sich fest um-|schlun- gen, sie|wur- den jung und ge-|
 !fermata!G,,4 z2!p! D,2 | E,3 E, C,3 C, | G,,2 G,,2 z2 z G,, | C,3 C, D,3 D, | G,,6 B,,2 | %25
w: sund. Zwei|Glöck- lein klan- gen|hel- le, der|Traum ver- schwand zur|Stund', sie|
 C,2"^cresc." D, D, E,2 D,2 | (C,2 D,2) E,2!pp! D,2 | G,2 G,, B,, D,2 D,2 | G,,6 z2 |] %29
w: lag in der Klo- ster-|zel- * le, er|fern in des Tur- mes|Grund.|

